X: 20635
T: John Ryan's
R: polka
M: 2/4
K: Dmajor
A|:dd B/c/d/B/|AF AF|dd B/c/d/B/|AF ED|
dd B/c/d/B/|AF Ad/e/|fd ec|1 d2 d2:|2 d2 dd/e/||
|:fd de/f/|gf ed/e/|fd Ad|fd/f/ a2|
fd de/f/|gf ed/e/|fd ec|1 d2 dd/e/:|2 d2 d2||

